X: 558
T:John O'Groat's House
S:Edinburgh sessions c.1990
S:John Martin, fiddle
S:Niall Kenny, flute
Z:Gordon Turnbull
B:Kerr's Merrie Melodies (in C)
D:John Martin tape
R:reel
N:Posted to the woodenflute mailing list, July 2002
M:C|
K:D
Adde f2 ed | cAeA cAcd | Adde f2 ed | Adcd ec d2 :|
agfa gbag | fded Beee | agfa gbag | fded Addd |
agfa gbag | fded Beee | Adde f2 ed | Adcd ec d2 :|
The set finishes with the High Reel, a.k.a. Duffy the Dancer
I found a comparison of the first tune on the web somewhere, but can't
remember the source:
<end>
<start>
